icons/glyphs/glyph-ruby.svg

<?xml version="1.0" encoding="UTF-8" standalone="no"?><svg height="16" viewBox="0 0 4.2333333 4.2333333" width="16" xmlns="http://www.w3.org/2000/svg"><sodipodi:namedview/><metadata><rdf:RDF><cc:Work><dc:format>image/svg+xml</dc:format><dc:type/><dc:title/></cc:Work></rdf:RDF></metadata><path d="m1.185137.39208255.9309117.92719125.9309117-.92719125zm-.34144449.062832-.84369039.84369045.009094.010748h1.69275478zm2.54471229 0-.8581582.85443805h1.6939946l.00909-.010748zm-3.1593951 1.11858245 1.8874524 2.2677538 1.8878658-2.2677538z" fill="#d0d0d0"/></svg>

<?xml version="1.0" encoding="UTF-8" standalone="no"?>
<!-- Created with Inkscape (http://www.inkscape.org/) -->

<svg
     xmlns:dc="http://purl.org/dc/elements/1.1/"
     xmlns:cc="http://creativecommons.org/ns#"
     xmlns:rdf="http://www.w3.org/1999/02/22-rdf-syntax-ns#"
     xmlns:svg="http://www.w3.org/2000/svg"
     xmlns="http://www.w3.org/2000/svg"
     xmlns:sodipodi="http://sodipodi.sourceforge.net/DTD/sodipodi-0.dtd"
     xmlns:inkscape="http://www.inkscape.org/namespaces/inkscape"
     width="16"
     height="16"
     viewBox="0 0 4.2333333 4.2333333"
     version="1.1"
     id="svg8"
     inkscape:version="0.92+devel (fa9b7f7a5b, 2017-07-19, custom)"
     sodipodi:docname="glyph-ruby.svg">
    <defs
         id="defs2">
        <linearGradient
             gradientTransform="translate(22-26)"
             gradientUnits="userSpaceOnUse"
             x2="54"
             x1="40"
             y2="31"
             y1="17"
             id="a">
            <stop
                 id="stop25"
                 stop-color="#060606" />
            <stop
                 id="stop27"
                 stop-opacity="0"
                 offset="1" />
        </linearGradient>
        <linearGradient
             gradientTransform="translate(-26-358.36)"
             x2="0"
             gradientUnits="userSpaceOnUse"
             y2="336.36"
             y1="392.36"
             id="b">
            <stop
                 id="stop30"
                 stop-opacity="0"
                 stop-color="#ffffff" />
            <stop
                 id="stop32"
                 stop-opacity=".2"
                 stop-color="#ffffff"
                 offset="1" />
        </linearGradient>
        <path
             d="m32 35v-58h30l14 14v44h-14z"
             id="c" />
    </defs>
    <sodipodi:namedview
         id="base"
         pagecolor="#002466"
         bordercolor="#ffffff"
         borderopacity="0.38039216"
         inkscape:pageopacity="1"
         inkscape:pageshadow="2"
         inkscape:zoom="10.137867"
         inkscape:cx="13.841016"
         inkscape:cy="1.6895137"
         inkscape:document-units="px"
         inkscape:current-layer="svg8"
         inkscape:document-rotation="0"
         showgrid="false"
         inkscape:showpageshadow="false"
         borderlayer="true"
         inkscape:window-width="1920"
         inkscape:window-height="1051"
         inkscape:window-x="0"
         inkscape:window-y="0"
         inkscape:window-maximized="1"
         units="px" />
    <metadata
         id="metadata5">
        <rdf:RDF>
            <cc:Work
                 rdf:about="">
                <dc:format>image/svg+xml</dc:format>
                <dc:type
                     rdf:resource="http://purl.org/dc/dcmitype/StillImage" />
                <dc:title></dc:title>
            </cc:Work>
        </rdf:RDF>
    </metadata>
    <path
         style="fill:#d0d0d0;stroke:none;stroke-width:0.21164598px;stroke-linecap:butt;stroke-linejoin:miter;stroke-opacity:1"
         d="M 1.185137,0.39208255 2.1160487,1.3192738 3.0469604,0.39208255 Z M 0.84369251,0.45491455 2.12e-6,1.298605 0.00909612,1.309353 H 1.7018509 Z m 2.54471229,0 -0.8581582,0.85443805 h 1.6939946 l 0.00909,-0.010748 z M 0.2290097,1.573497 2.1164621,3.8412508 4.0043279,1.573497 Z"
         id="path81"
         inkscape:connector-curvature="0"
         inkscape:label="#" />
</svg>
